X:1
T:Title
%%score 1 ( 2 3 )
L:1/8
Q:1/4=98
M:4/4
K:D
V:1 treble nm="Grand Piano, Soprano"
V:2 bass nm="Choir Pad, Jesus Sweetly Saves, Morris"
V:3 bass 
V:1
 D>[DE] [DF]>[DF] [DF]>[CE] D2 | D>[DF] [FA]>[FA] [FA]>[DG] [DF]2 | %2
w: By~Lelia~Naylor~Morris * * * * * *||
 [EG]>[DF] [CE]>[CE] [CE]>[DF] [EG]>[FA] | [GB]>[Gc] [Fd]4 [FA]2 | %4
w: ||
 [FA]>[FA] [Fd]>[Fd] [Fd]>[Fd] [Ec]2 | [Fd]>[Ec] [DB]>[DB] [Dd]>[GB] [FA]2 | %6
w: ||
 D>[DE] [DF]>[EG] [FA]>[GB] [FA]>[EG] | [DF]>D [CE]4 D2 | [FA]>[FA] [Fd]6 | [Ac]>[GB] [FA]6 | %10
w: ||||
 [FA]>[FA] [GB]>[GB] [GB]>[GB] [GB]>[FA] | [DF]>D [DF]4 [CE]2 | %12
w: ||
 [CE]>[DF] [EG]>[EG] [DF]>[CE] [DF]2 | [DF]>[EG] [FA]>[FA] [Ad]>[Ac] [GB]2 | %14
w: ||
 [Gc]>[Gd] [Fd]>[Fd] [FA]>[DF] [CA]>[CA] | [CG]>C [CE]4 D2- | D6 z2 |] %17
w: |||
V:2
 [D,F,]>[D,G,] [D,A,]>[D,A,] [D,A,]>[D,G,] [D,F,]2 | %1
 [D,F,]>[D,A,] [D,D]>[D,D] [D,D]>[D,B,] [D,A,]2 | %2
 [C,A,]>[D,A,] [A,,A,]>[A,,A,] [A,,A,]>[A,,A,] [A,,A,]>[A,,A,] | [A,,A,]>[A,,A,] [D,A,]4 [D,D]2 | %4
 [D,D]>[D,D] [B,D]>[B,D] [B,D]>B, [F,^A,]2 | [F,^A,]>[F,A,] [G,B,]>[G,B,] [G,B,]>[G,D] [D,D]2 | %6
 [D,F,]>[D,G,] [D,A,]>[D,A,] [D,D]>[D,D] [D,D]>[D,A,] | [D,A,]>[D,F,] A,2 G,2 [D,F,]2 | %8
 z4 [D,A,]>[D,A,] [D,A,]2 | z4 [D,D]>[D,D] [D,D]2 | %10
 [D,D]>[D,D] [G,D]>[G,D] [G,D]>[G,D] [D,D]>[D,D] | [D,A,]>[D,F,] [A,,A,]4 [A,,A,]2 | %12
 [A,,A,]>[A,,A,] [A,,A,]>[A,,A,] [A,,A,]>[A,,A,] [D,A,]2 | %13
 [D,A,]>[D,A,] [D,D]>[D,D] [F,D]>[F,D] [G,D]2 | [G,B,]>[G,B,] A,>A, [A,D]>A, [A,,A,]>[A,,A,] | %15
 [A,,E,]>[A,,A,] A,2 G,2 [D,F,]2- | [D,F,]6 z2 |] %17
V:3
 x8 | x8 | x8 | x8 | x8 | x8 | x8 | z2 A,,4 z2 | x8 | x8 | x8 | x8 | x8 | x8 | x8 | z2 A,,4 z2 | %16
 x8 |] %17

